X: 21031
T: MAGGY GOWLACH'S REEL
R: reel
B: K\"ohler's Violin Repository, v.2, 1885 p.103 #1
F: http://www.archive.org/details/klersviolinrepos02rugg
Z: 2012 John Chambers <jc:trillian.mit.edu>
M: C|
L: 1/8
K: D
uB |\
A2FA B2Bd | A2FA (BE)EB | A2FA (Bc)dB | (AF)EF D2D :|
uf |\
d2(fd) edfd | BABd e2(ef) | d2(fd) edfd | BdAF D2(DA) |
d2(fd) edfd | (BA)Bd (fe)ef | (ab)af (dg)fe | (dB)AF D2"_Fine."D "^D.C."|]

%%sep 2 1 500

